svgs/thin/house-laptop.svg

<svg xmlns="http://www.w3.org/2000/svg" viewBox="0 0 640 512"><!--! Font Awesome Pro 6.5.1 by @fontawesome - https://fontawesome.com License - https://fontawesome.com/license (Commercial License) Copyright 2023 Fonticons, Inc. --><path d="M234.8 1.9c3-2.6 7.4-2.6 10.4 0l232 200c3.3 2.9 3.7 7.9 .8 11.3s-7.9 3.7-11.3 .8L416 170.3V224H400V156.5L240 18.6 80 156.5V360c0 22.1 17.9 40 40 40H272v16H120c-30.9 0-56-25.1-56-56V170.3L13.2 214.1c-3.3 2.9-8.4 2.5-11.3-.8s-2.5-8.4 .8-11.3l232-200zM304 200v26.7c-6 2.1-11.4 5.4-16 9.5V200c0-4.4-3.6-8-8-8H200c-4.4 0-8 3.6-8 8v80c0 4.4 3.6 8 8 8h72v16H200c-13.3 0-24-10.7-24-24V200c0-13.3 10.7-24 24-24h80c13.3 0 24 10.7 24 24zm256 72H336c-8.8 0-16 7.2-16 16V448H576V288c0-8.8-7.2-16-16-16zM304 288c0-17.7 14.3-32 32-32H560c17.7 0 32 14.3 32 32V448h32c8.8 0 16 7.2 16 16c0 26.5-21.5 48-48 48H304c-26.5 0-48-21.5-48-48c0-8.8 7.2-16 16-16h32V288zM576 464H320 304 272c0 17.7 14.3 32 32 32H592c17.7 0 32-14.3 32-32H592 576z"/></svg>

<svg xmlns="http://www.w3.org/2000/svg" viewBox="0 0 640 512"><!--! Font Awesome Pro 6.1.1 by @fontawesome - https://fontawesome.com License - https://fontawesome.com/license (Commercial License) Copyright 2022 Fonticons, Inc. --><path d="M234.8 1.941C237.8-.6469 242.2-.6469 245.2 1.941L477.2 201.9C480.6 204.8 480.9 209.9 478.1 213.2C475.2 216.6 470.1 216.9 466.8 214.1L416 170.3V224H400V156.5L240 18.56L80 156.5V360C80 382.1 97.91 400 120 400H272V416H120C89.07 416 64 390.9 64 360V170.3L13.22 214.1C9.877 216.9 4.826 216.6 1.941 213.2C-.944 209.9-.5699 204.8 2.777 201.9L234.8 1.941zM304 200V226.7C298 228.8 292.6 232.1 288 236.2V200C288 195.6 284.4 192 280 192H200C195.6 192 192 195.6 192 200V280C192 284.4 195.6 288 200 288H272V304H200C186.7 304 176 293.3 176 280V200C176 186.7 186.7 176 200 176H280C293.3 176 304 186.7 304 200zM336 256H560C577.7 256 592 270.3 592 288V448H624C632.8 448 640 455.2 640 464C640 490.5 618.5 512 592 512H304C277.5 512 256 490.5 256 464C256 455.2 263.2 448 272 448H304V288C304 270.3 318.3 256 336 256zM560 272H336C327.2 272 320 279.2 320 288V448H576V288C576 279.2 568.8 272 560 272zM272 464C272 481.7 286.3 496 304 496H592C609.7 496 624 481.7 624 464H272z"/></svg>
